X:1
T:Lundie
T:Theodore E. Perkins (1831-1912)
T:Lundie
T:Public Domain
C:Theodore E. Perkins (1831-1912)
Z:Public Domain
%%score ( 1 2 ) ( 3 4 )
L:1/8
M:6/8
K:Eb
V:1 treble 
V:2 treble 
V:3 bass 
V:4 bass 
V:1
 [GB]3 [Ac]2 [GB] | [EG]2 [DF] E3 | [DF]3 [CE]2 [DF] | ([EG]3 [GB]3) | [GB]3 [Ac]2 [GB] | %5
 [EG]2 [DF] (E2 F) | (G2 E) [DF]2 [DF] | [B,E]6 | [DF]3 [DB]2 [DF] | [EG]2 [FA] [GB]3 | %10
 [Ac]3 [Ae]2 [Ac] | [GB]2 [EG] [DF]3 | [EB]3 [Ec]2 [EB] | [EG]2 [DF] (E2 F) | (G2 E) [DF]2 [DF] | %15
 [B,E]6 |] %16
V:2
 x6 | x3 E3 | x6 | x6 | x6 | x3 E3 | E3 x3 | x6 | x6 | x6 | x6 | x6 | x6 | x3 E3 | E3 x3 | x6 |] %16
V:3
 [E,E]3 [E,E]2 [E,E] | [E,B,]2 [B,,A,] [E,G,]3 | [B,,B,]3 [B,,B,]2 [B,,B,] | ([E,B,]3 [E,E]3) | %4
 [E,E]3 [E,E]2 [E,E] | [E,B,]2 [B,,A,] ([C,G,]2 [A,,C]) | (B,2 G,) [B,,A,]2 [B,,A,] | [E,G,]6 | %8
 [B,,B,]3 [B,,F,]2 [B,,B,] | [E,B,]2 [E,B,] [E,E]3 | [A,E]3 [A,C]2 [A,E] | [E,E]2 [E,B,] [B,,B,]3 | %12
 [E,G,]3 [E,A,]2 [E,G,] | [E,B,]2 [B,,A,] ([C,G,]2 [A,,C]) | (B,2 G,) [B,,A,]2 [B,,A,] | [E,G,]6 |] %16
V:4
 x6 | x6 | x6 | x6 | x6 | x6 | B,,3 x3 | x6 | x6 | x6 | x6 | x6 | x6 | x6 | B,,3 x3 | x6 |] %16

